src/assets/outline/CloudAdd.svg

<svg width="24" height="24" viewBox="0 0 24 24"  xmlns="http://www.w3.org/2000/svg">
<path d="M7.46027 19.3403H5.54022C2.60022 19.1303 1.28027 16.8703 1.28027 14.8603C1.28027 12.8503 2.60023 10.5803 5.49023 10.3803C5.90023 10.3403 6.26022 10.6603 6.29022 11.0803C6.32022 11.4903 6.01027 11.8503 5.59027 11.8803C3.65027 12.0203 2.78027 13.4803 2.78027 14.8703C2.78027 16.2603 3.65027 17.7203 5.59027 17.8603H7.46027C7.87027 17.8603 8.21027 18.2003 8.21027 18.6103C8.21027 19.0203 7.87027 19.3403 7.46027 19.3403Z" />
<path d="M16.6699 19.34C16.6499 19.34 16.6399 19.34 16.6199 19.34C16.2099 19.34 15.8299 19 15.8299 18.59C15.8299 18.16 16.1499 17.84 16.5699 17.84C17.7999 17.84 18.8999 17.41 19.7599 16.64C21.3199 15.28 21.4199 13.32 20.9999 11.94C20.5799 10.57 19.4099 9 17.3699 8.75C17.0399 8.71 16.7799 8.46001 16.7199 8.13001C16.3199 5.73001 15.0299 4.07 13.0699 3.47C11.0499 2.84 8.68989 3.46 7.21988 5C5.78988 6.49 5.45989 8.58001 6.28989 10.88C6.42989 11.27 6.22994 11.7 5.83994 11.84C5.44994 11.98 5.01992 11.78 4.87992 11.39C3.86992 8.57 4.32993 5.87 6.13993 3.97C7.98993 2.03 10.9599 1.26 13.5099 2.04C15.8499 2.76 17.4999 4.69 18.0999 7.37C20.1399 7.83 21.7799 9.38001 22.4299 11.52C23.1399 13.85 22.4999 16.25 20.7499 17.77C19.6399 18.77 18.1899 19.34 16.6699 19.34Z" />
<path d="M12 22.2803C9.99 22.2803 8.11002 21.2103 7.08002 19.4803C6.97002 19.3103 6.86002 19.1103 6.77002 18.8903C6.43002 18.1803 6.25 17.3703 6.25 16.5303C6.25 13.3603 8.83 10.7803 12 10.7803C15.17 10.7803 17.75 13.3603 17.75 16.5303C17.75 17.3803 17.57 18.1803 17.21 18.9203C17.13 19.1103 17.02 19.3103 16.9 19.5003C15.89 21.2103 14.01 22.2803 12 22.2803ZM12 12.2803C9.66 12.2803 7.75 14.1903 7.75 16.5303C7.75 17.1503 7.88 17.7303 8.13 18.2603C8.21 18.4303 8.27999 18.5703 8.35999 18.7003C9.11999 19.9903 10.51 20.7803 11.99 20.7803C13.47 20.7803 14.86 19.9903 15.61 18.7203C15.7 18.5703 15.78 18.4303 15.84 18.2903C16.11 17.7403 16.24 17.1603 16.24 16.5403C16.25 14.1903 14.34 12.2803 12 12.2803Z" />
<path d="M11.4299 18.2698C11.2399 18.2698 11.0499 18.1998 10.8999 18.0498L9.90988 17.0598C9.61988 16.7698 9.61988 16.2898 9.90988 15.9998C10.1999 15.7098 10.6799 15.7098 10.9699 15.9998L11.4499 16.4798L13.0499 14.9998C13.3599 14.7198 13.8299 14.7398 14.1099 15.0398C14.3899 15.3398 14.3699 15.8198 14.0699 16.0998L11.9399 18.0698C11.7899 18.1998 11.6099 18.2698 11.4299 18.2698Z" />
</svg>

<?xml version="1.0" encoding="UTF-8"?>
<svg width="24" height="24" viewBox="0 0 24 24" xmlns="http://www.w3.org/2000/svg">
 <path d="m7.4603 19.34h-1.92c-2.94-0.21-4.26-2.47-4.26-4.48s1.32-4.28 4.21-4.48c0.41-0.04 0.76999 0.28 0.79999 0.7 0.03 0.41-0.27995 0.77-0.69995 0.8-1.94 0.14-2.81 1.6-2.81 2.99s0.87 2.85 2.81 2.99h1.87c0.41 0 0.75 0.34 0.75 0.75s-0.34 0.73-0.75 0.73z"/>
 <path d="m16.67 19.34h-0.05c-0.41 0-0.79-0.34-0.79-0.75 0-0.43 0.32-0.75 0.74-0.75 1.23 0 2.33-0.43 3.19-1.2 1.56-1.36 1.66-3.32 1.24-4.7-0.42-1.37-1.59-2.94-3.63-3.19-0.33-0.04-0.59-0.28999-0.65-0.61999-0.4-2.4-1.69-4.06-3.65-4.66-2.02-0.63-4.38-0.01-5.85 1.53-1.43 1.49-1.76 3.58-0.92999 5.88 0.14 0.39-0.05995 0.82-0.44995 0.96s-0.82002-0.06-0.96002-0.45c-1.01-2.82-0.54999-5.52 1.26-7.42 1.85-1.94 4.82-2.71 7.37-1.93 2.34 0.72 3.99 2.65 4.59 5.33 2.04 0.46 3.68 2.01 4.33 4.15 0.71 2.33 0.07 4.73-1.68 6.25-1.11 1-2.56 1.57-4.08 1.57z"/>
 <path d="m12 22.28c-2.01 0-3.89-1.07-4.92-2.8-0.11-0.17-0.22-0.37-0.31-0.59-0.34-0.71-0.52002-1.52-0.52002-2.36 0-3.17 2.58-5.75 5.75-5.75s5.75 2.58 5.75 5.75c0 0.85-0.18 1.65-0.54 2.39-0.08 0.19-0.19 0.39-0.31 0.58-1.01 1.71-2.89 2.78-4.9 2.78zm0-10c-2.34 0-4.25 1.91-4.25 4.25 0 0.62 0.13 1.2 0.38 1.73 0.08 0.17 0.14999 0.31 0.22999 0.44 0.76 1.29 2.15 2.08 3.63 2.08s2.87-0.79 3.62-2.06c0.09-0.15 0.17-0.29 0.23-0.43 0.27-0.55 0.4-1.13 0.4-1.75 0.01-2.35-1.9-4.26-4.24-4.26z"/>
 <path d="m11.43 18.27c-0.19 0-0.38-0.07-0.53-0.22l-0.99002-0.99c-0.29-0.29-0.29-0.77 0-1.06 0.29002-0.29 0.77002-0.29 1.06 0l0.48 0.48 1.6-1.48c0.31-0.28 0.78-0.26 1.06 0.04s0.26 0.78-0.04 1.06l-2.13 1.97c-0.15 0.13-0.33 0.2-0.51 0.2z"/>
</svg>
